X:1
T:Title
%%score { ( 1 3 ) | ( 2 4 5 ) }
L:1/8
Q:1/4=116
M:4/4
K:G
V:1 treble nm="Grand Piano"
V:3 treble 
V:2 bass 
V:4 bass 
V:5 bass 
V:1
 [DB]4 [CA]2 [B,G]2 | [B,D]3 [CE] [B,D]4 | F4 E2 F2 | G4 D4 | B4 A2 G2 | c3 c B4 | %6
w: Powell~G.~Fithian * *||||||
 A4 [^CB]2 [CA]2 | [DA]6 z2 | [Fd]4 [FA]2 [Ac]2 | B3 c d4 | [Ge]4 z4 | [GB]4 z4 | %12
w: ||||||
 [DGd]4 [DFc]2 [DGB]2 | [DEB]3 [CEA] [CA]4 | %14
w: ||
[M:19/16] D-<D-[DF]-<[DF][DFB]/-[DFB]/-[DFB]/-[DFB]/-[DFB]/-[DFB]-<[DFB][CFA] | %15
w: |
[M:4/4] [B,DG]6 z2 |] %16
w: |
V:2
 [G,,G,]4 [G,,G,]2 [G,,G,]2 | [G,,G,]3 [G,,G,] [G,,G,]4 | [D,A,C]4 [D,G,C]2 [D,A,C]2 | [G,,G,]8 | %4
 [G,D]4 [G,C]2 [G,B,]2 | [G,E]3 [G,E] [G,D]4 | [E,G,^C]4 [A,,G,]2 [A,,G,]2 | [D,F,]6 z2 | %8
 [D,A,]4 [D,A,]2 [D,D]2 | [G,DG]3 [G,A,G] [G,B,G]4 | C4[K:treble] [G,B,G]2 [G,DG]2 | z4 F4 | %12
 B,,2 B,2 A,2 G,2 | C,3 C, C,4 |[M:19/16] z/ z/ z A,-<A,D,/-D,/-D,/-D,/-D,/-D,-<D,D, | %15
[M:4/4] G,6 z2 |] %16
V:3
 x8 | x8 | x8 | B,8 | x8 | x8 | x8 | x8 | x8 | x8 | z2 E,2 d2 B2 | D4- [DA]4 | x8 | x8 | %14
[M:19/16] [B,G]-<[B,G] z/ z/ z/ z/ z/ z/ z/ z/ z/ z/ z/ z/ z/ z |[M:4/4] x8 |] %16
V:4
 x8 | x8 | x8 | x8 | x8 | x8 | x8 | x8 | x8 | x8 | C,2 z2[K:treble] z4 | D,6 z2 | x8 | x8 | %14
[M:19/16] D,/-D,/-D,/-D,/-D,-<D, z/ z/ z/ z/ z/ z/ z/ z/ z/ z |[M:4/4] x8 |] %16
V:5
 x8 | x8 | x8 | x8 | x8 | x8 | x8 | x8 | x8 | x8 | x4[K:treble] x4 | z4 z2 C,2 | x8 | x8 | %14
[M:19/16] x19/2 |[M:4/4] x8 |] %16

